packages/icons/src/components/Icon/assets/small-outline/doc.svg

<svg width="16" height="16" viewBox="0 0 16 16" fill="none" xmlns="http://www.w3.org/2000/svg">
<path fill-rule="evenodd" clip-rule="evenodd" d="M3.5 2.51508V13.4849C3.51421 13.4922 3.5375 13.5 3.57031 13.5H12.8672C12.9 13.5 12.9233 13.4922 12.9375 13.4849V2.57049C12.9375 2.5309 12.9058 2.5 12.8676 2.5L3.57031 2.5C3.5375 2.5 3.51421 2.50782 3.5 2.51508ZM2 2.47115C2 1.57079 2.79676 1 3.57031 1L12.8676 1C13.7356 1 14.4375 1.70378 14.4375 2.57049V13.5288C14.4375 14.4292 13.6407 15 12.8672 15H3.57031C2.79675 15 2 14.4292 2 13.5288V2.47115ZM4.73438 4.76688C4.73438 4.35267 5.07016 4.01688 5.48438 4.01688V4.76688V5.51688C5.07016 5.51688 4.73438 5.18109 4.73438 4.76688ZM5.48438 4.76688V5.51688H8.94792C9.36213 5.51688 9.69792 5.18109 9.69792 4.76688C9.69792 4.35267 9.36213 4.01688 8.94792 4.01688H5.48438V4.76688ZM4.73438 7.01047C4.73438 6.59626 5.07016 6.26047 5.48438 6.26047H10.9531C11.3673 6.26047 11.7031 6.59626 11.7031 7.01047C11.7031 7.42468 11.3673 7.76047 10.9531 7.76047H5.48438C5.07016 7.76047 4.73438 7.42468 4.73438 7.01047ZM4.73438 9.14183C4.73438 8.72762 5.07016 8.39183 5.48438 8.39183H10.9531C11.3673 8.39183 11.7031 8.72762 11.7031 9.14183C11.7031 9.55605 11.3673 9.89183 10.9531 9.89183H5.48438C5.07016 9.89183 4.73438 9.55605 4.73438 9.14183ZM4.73438 11.0649C4.73438 10.6507 5.07016 10.3149 5.48438 10.3149H8.21875C8.63296 10.3149 8.96875 10.6507 8.96875 11.0649C8.96875 11.4791 8.63296 11.8149 8.21875 11.8149H5.48438C5.07016 11.8149 4.73438 11.4791 4.73438 11.0649Z" fill="black"/>
</svg>

<svg xmlns="http://www.w3.org/2000/svg" width="16" height="16" fill="none" viewBox="0 0 16 16">
    <path d="M3.5 2.515v10.97a.2.2 0 0 0 .07.015h9.297a.2.2 0 0 0 .07-.015V2.57a.07.07 0 0 0-.07-.07H3.57a.2.2 0 0 0-.07.015M2 2.471C2 1.571 2.797 1 3.57 1h9.298c.868 0 1.57.704 1.57 1.57v10.96c0 .9-.797 1.471-1.57 1.471H3.57C2.797 15 2 14.43 2 13.529zm2.734 2.296a.75.75 0 0 1 .75-.75v1.5a.75.75 0 0 1-.75-.75m.75 0v.75h3.464a.75.75 0 0 0 0-1.5H5.484zm-.75 2.243a.75.75 0 0 1 .75-.75h5.47a.75.75 0 0 1 0 1.5h-5.47a.75.75 0 0 1-.75-.75m0 2.132a.75.75 0 0 1 .75-.75h5.47a.75.75 0 0 1 0 1.5h-5.47a.75.75 0 0 1-.75-.75m0 1.923a.75.75 0 0 1 .75-.75H8.22a.75.75 0 0 1 0 1.5H5.484a.75.75 0 0 1-.75-.75" clip-rule="evenodd"/>
</svg>
